X: 1
T:March  " "
M:C|
L:1/8
Q:80
C:PM J.McLellan/JHP
S:MEN OF ARGYLL
K:HP
|: {g}f3/4e/4|
{Gdc}d{g}B{GdGe}B{Gdc}d3/4e/4|
{gfg}fa{fg}f{g}e3/4d/4|  !
{gcd}c{e}A{GAG}A3/2B/2|
{g}c/4{d}A3/4c3/4d/4{gef}e{g}f3/4e/4| |
{Gdc}d{g}c3/4d/4{gBd}B{Gdc}d3/4e/4|  !
{gfg}fa{fg}f{g}d3/4e/4|
{g}f3/4e/4{g}f/4a3/4{cd}c{e}A|
{g}B2{GdGe}B:| |:  !
{gf}g|
{ag}a{Gdc}d{gfg}fe/4d3/4|
{gfg}fa{fg}f{g}c3/4d/4|  !
{gef}e{g}A{gcd}c3/2d/2|
{gef}e3/4c/4{g}A3/4{d}c/4{gef}e|1 {gf}g| |
|1 {ag}a{Gdc}d{gfg}fe/4d3/4|  !
{gfg}fa{fg}f{g}d3/4e/4|
{g}f3/4e/4{g}f/4a3/4{cd}c{e}A|
{g}B2{GdGe}B:| |  !
|2 f3/4e/4|
{Gdc}d{g}c3/4d/4{gBd}B{Gdc}d3/4e/4|
{gfg}fa{fg}f{g}d3/4e/4|  !
{g}f3/4e/4{g}f/4a3/4{cd}c{e}A|
{g}B2{GdGe}B|] |:
e|  !
{g}B3/2c/2{g}B{d}c/4e3/4|
{g}f3/4e/4{g}f/4a3/4{fg}fe/4c3/4|
{g}A3/2{d}B/2{g}A{g}A3/4B/4|  !
{g}c/4{d}A3/4{g}c/4e3/4{g}f3/4e/4{g}c/4{d}A3/4| |
{g}B3/2{d}c/2{g}B{d}c/4e3/4|
{g}f3/4e/4{g}f/4a3/4c/4e3/4{g}A3/4{d}c/4|  !
{g}f3/4e/4{g}f/4a3/4{cd}c{e}A|
{g}B2{GdGe}B:| |:
{g}c/4e3/4|  !
{gfg}f{gBG}B{gfg}f3/2e/2|
{g}f3/4e/4{g}f/4a3/4{fg}fe/4c3/4|
{gef}e{AGAG}A{gef}e3/2f/2|  !
{gef}e3/4c/4{g}B/4{d}c3/4{g}A3/4B/4{g}c/4e3/4| |
|1 {gfg}f{gBG}B{gfg}f3/2e/2|
{g}f3/4e/4{g}f/4a3/4c/4e3/4{g}A3/4{d}c/4|  !
{g}f3/4e/4{g}f/4a3/4{cd}c{e}A|
{g}B2{GdGe}B:| |
|2 {g}c/4f3/4{g}e3/4c/4{gBG}B{d}c/4e3/4|  !
{g}f3/4e/4{g}f/4a3/4c/4e3/4{g}A3/4{d}c/4|
{g}f3/4e/4{g}f/4a3/4{cd}c{e}A|
{g}B2{GdGe}B|]  !
